X:1
T:Dellen-Juiz  Bb  ABAC / AABC
T:Thomas Wieland  (* 8.11.1953)
T:Dirigenten-Notiz  Edi Gasser
C:Unterwalden (CH)
%%partsbox
%P:ABAC
M:6/2
R:Naturjodel
L:1/4
K:Bb
[P:A] FDFB | d3cB4FDFB | c3BA4FEFA | e3dc2e2d2c2 | 
d3cB4FDFB | d3cB4FDFB | c3BA4FEFA | e3dc2e2dEFc | B4z2z2 || 
[P:B] FF | c>=Bc2FF | d>^cd2Fd | e>cA2 F/e/d/c/ | d>c !breath!B2FF | 
c>=BcF E/F/A/c/ | d>^cd2Bd | f>GFdcF | B4FF ||  
c>=Bc2FF | d>^cd2Fd | e>cA2F/e/d/c/ | d>c!breath! B2FF |
c>=BcF E/F/A/c/ | d>^cd2Bd | f>GFdcF | B4 || 
L:1/8
M:6/8
[P:C] F/F/ | d>B D/G/ F>B D | F>e c A2F/F/ | e>c AF E/F/ d/c/ | B>c d F2 F/F/ | 
d>B D/G/ F>B D | F>e cA2 F/F/ | e>c AF E/F/ d/c/ | B4zF/F/ | 
d>B D/G/ F>B D | F>e cA2 F/F/ | e>c AF E/F/ d/c/ | B>c d F2FF |
d>B D/G/ F>B D | F>e cA2 F/F/ | e>c AF E/F/ d/c/ | B4zz |]  
W:
W:Reihenfolge: A-B-A-C  oder  AA-B-C
W:
W:notiert Edi Gasser. Angaben: Thomas Wieland
W:UJV-Naturjodelsammlung: Code-Nr: 21-01
W:http://www.naturjodler.ch/code 21.htm  (with AUDIO)
%May 19, 2018

